app/component-library/components/Icons/Icon/assets/light.svg

<svg width="24" height="24" viewBox="0 0 24 24" fill="none" xmlns="http://www.w3.org/2000/svg">
<path d="M12.2808 19C16.1468 19 19.2808 15.866 19.2808 12C19.2808 8.13401 16.1468 5 12.2808 5C8.41477 5 5.28076 8.13401 5.28076 12C5.28076 15.866 8.41477 19 12.2808 19Z" fill="currentColor"/>
<path d="M12.2808 22.96C11.7308 22.96 11.2808 22.55 11.2808 22V21.92C11.2808 21.37 11.7308 20.92 12.2808 20.92C12.8308 20.92 13.2808 21.37 13.2808 21.92C13.2808 22.47 12.8308 22.96 12.2808 22.96ZM19.4208 20.14C19.1608 20.14 18.9108 20.04 18.7108 19.85L18.5808 19.72C18.1908 19.33 18.1908 18.7 18.5808 18.31C18.9708 17.92 19.6008 17.92 19.9908 18.31L20.1208 18.44C20.5108 18.83 20.5108 19.46 20.1208 19.85C19.9308 20.04 19.6808 20.14 19.4208 20.14ZM5.14076 20.14C4.88076 20.14 4.63076 20.04 4.43076 19.85C4.04076 19.46 4.04076 18.83 4.43076 18.44L4.56076 18.31C4.95076 17.92 5.58076 17.92 5.97076 18.31C6.36076 18.7 6.36076 19.33 5.97076 19.72L5.84076 19.85C5.65076 20.04 5.39076 20.14 5.14076 20.14ZM22.2808 13H22.2008C21.6508 13 21.2008 12.55 21.2008 12C21.2008 11.45 21.6508 11 22.2008 11C22.7508 11 23.2408 11.45 23.2408 12C23.2408 12.55 22.8308 13 22.2808 13ZM2.36076 13H2.28076C1.73076 13 1.28076 12.55 1.28076 12C1.28076 11.45 1.73076 11 2.28076 11C2.83076 11 3.32076 11.45 3.32076 12C3.32076 12.55 2.91076 13 2.36076 13ZM19.2908 5.99C19.0308 5.99 18.7808 5.89 18.5808 5.7C18.1908 5.31 18.1908 4.68 18.5808 4.29L18.7108 4.16C19.1008 3.77 19.7308 3.77 20.1208 4.16C20.5108 4.55 20.5108 5.18 20.1208 5.57L19.9908 5.7C19.8008 5.89 19.5508 5.99 19.2908 5.99ZM5.27076 5.99C5.01076 5.99 4.76076 5.89 4.56076 5.7L4.43076 5.56C4.04076 5.17 4.04076 4.54 4.43076 4.15C4.82076 3.76 5.45076 3.76 5.84076 4.15L5.97076 4.28C6.36076 4.67 6.36076 5.3 5.97076 5.69C5.78076 5.89 5.52076 5.99 5.27076 5.99ZM12.2808 3.04C11.7308 3.04 11.2808 2.63 11.2808 2.08V2C11.2808 1.45 11.7308 1 12.2808 1C12.8308 1 13.2808 1.45 13.2808 2C13.2808 2.55 12.8308 3.04 12.2808 3.04Z" fill="currentColor"/>
</svg>

<svg xmlns="http://www.w3.org/2000/svg" width="24" height="24" viewBox="0 0 24 24" fill="none"><path d="M12.28 19a7 7 0 1 0 0-14 7 7 0 0 0 0 14zM12.28 22.96c-.55 0-1-.41-1-.96v-.08c0-.55.45-1 1-1s1 .45 1 1-.45 1.04-1 1.04zm7.14-2.82c-.26 0-.51-.1-.71-.29l-.13-.13a.996.996 0 1 1 1.41-1.41l.13.13a.996.996 0 0 1-.7 1.7zm-14.28 0c-.26 0-.51-.1-.71-.29a.996.996 0 0 1 0-1.41l.13-.13a.996.996 0 1 1 1.41 1.41l-.13.13c-.19.19-.45.29-.7.29zM22.28 13h-.08c-.55 0-1-.45-1-1s.45-1 1-1 1.04.45 1.04 1-.41 1-.96 1zM2.36 13h-.08c-.55 0-1-.45-1-1s.45-1 1-1 1.04.45 1.04 1-.41 1-.96 1zm16.93-7.01c-.26 0-.51-.1-.71-.29a.996.996 0 0 1 0-1.41l.13-.13a.996.996 0 1 1 1.41 1.41l-.13.13c-.19.19-.44.29-.7.29zm-14.02 0c-.26 0-.51-.1-.71-.29l-.13-.14a.996.996 0 1 1 1.41-1.41l.13.13c.39.39.39 1.02 0 1.41-.19.2-.45.3-.7.3zm7.01-2.95c-.55 0-1-.41-1-.96V2c0-.55.45-1 1-1s1 .45 1 1-.45 1.04-1 1.04z" fill="currentColor"/></svg>
